!!!COM: Music21
!!!OTL: Lembrando II
!!!OMV: pezas_valses_lembrando-ii_lembrando-ii-partitura.musicxml
**kern
*I"Bagpipes
*I'Bag
*clefG^2
*k[]
*M3/4
=1
!LO:TX:a:t=Presto
4ee
4ff
4gg
=
4ccc
4bb
4gg
=
4aa
8bbL
8aaJ
[4gg
=
2.gg_
=
2.gg]
=
4ee
4ff
4gg
=
4ccc
4bb
4gg
=
4aa
8bbL
8aaJ
[4gg
=
4gg]
4gg
4gg
=
2aa
4gg
=
2aa
4ccc
=
[2.bb
=
2.bb_
!!linebreak:original
=
2.bb]
=
4dd
4ee
4ff
=
4gg
4gg
4ff
=
4gg
8aaL
8ggJ
[4ff
=
2.ff_
=
2.ff]
=
4dd
4ee
4ff
=
4gg
4gg
4ff
=
4gg
8aaL
8ggJ
[4ff
=
4ff]
4gg
4gg
=
2aa
4gg
=
2aa
4ff
=
[2.ee
!!linebreak:original
=
2.ee]
=||
*M3/4
!LO:TX:a:t=Presto
4ee
4ff
4gg
=
4ccc
4bb
4gg
=
4aa
8bbL
8aaJ
[4gg
=
2.gg_
=
2.gg]
=
4ee
4ff
4gg
=
4ccc
4bb
4gg
=
4aa
8bbL
8aaJ
[4gg
=
4gg]
4gg
4gg
=
2aa
4gg
=
2aa
4ccc
=
[2.bb
!!linebreak:original
=
2.bb_
=
2.bb]
=
4dd
4ee
4ff
=
4gg
4gg
4ff
=
4gg
8aaL
8ggJ
[4ff
=
2.ff_
=
2.ff]
=
4dd
4ee
4ff
=
4gg
4gg
4ff
=
4gg
8aaL
8ggJ
[4ff
=
4ff]
4gg
4gg
=
2aa
4gg
=
2aa
4ff
=
[2.ee
!!linebreak:original
=
4ee]
4ee
4ee
=||
12aaL
12bb
12aaJ
[2gg
=
4gg]
4ee
4ee
=
12aaL
12bb
12aaJ
[2gg
=
4gg]
4ccc
4bb
=
4aa
4bb
4aa
=
4gg
4aa
4gg
=
[2.ff
=
4ff]
4dd
4dd
=
12ggL
12aa
12ggJ
[2ff
=
4ff]
4dd
4dd
=
12ggL
12aa
12ggJ
[2ff
!!linebreak:original
=
4ff]
4bb
4aa
=
4gg
4aa
4gg
=
4ff
4gg
4ff
=
[2.ee
=
4ee]
4ee
4ee
=
12aaL
12bb
12aaJ
[2gg
=
4gg]
4ee
4ee
=
12aaL
12bb
12aaJ
[2gg
=
2.gg]
=
4ccc
4bb
4aa
=
4bb
4aa
4gg
=
[2.aa
=
2.aa_
!!linebreak:original
=
4aa]
4dd
4ee
=
2ff
4gg
=
2aa
4gg
=
4ccc
[2bb
=
2.bb_
=
2.bb_
=
4bb]
4ccc
4ccc
=
2bb
4gg
=
2aa
4ff
=
[2.ee
=
4ee]
4ee
4ee
=||
12aaL
12bb
12aaJ
[2gg
=
4gg]
4ee
4ee
=
12aaL
12bb
12aaJ
[2gg
!!linebreak:original
=
4gg]
4ccc
4bb
=
4aa
4bb
4aa
=
4gg
4aa
4gg
=
[2.ff
=
4ff]
4dd
4dd
=
12ggL
12aa
12ggJ
[2ff
=
4ff]
4dd
4dd
=
12ggL
12aa
12ggJ
[2ff
=
4ff]
4bb
4aa
=
4gg
4aa
4gg
=
4ff
4gg
4ff
=
[2.ee
!!linebreak:original
=
4ee]
4ee
4ee
=
12aaL
12bb
12aaJ
[2gg
=
4gg]
4ee
4ee
=
12aaL
12bb
12aaJ
[2gg
=
2.gg]
=
4ccc
4bb
4aa
=
4bb
4aa
4gg
=
[2.aa
=
2.aa_
=
4aa]
4dd
4ee
=
2ff
4gg
=
2aa
4gg
=
4ccc
[2bb
=
2.bb_
!!linebreak:original
=
2.bb_
=
4bb]
4ccc
4ccc
=
2bb
4gg
=
2aa
4ff
=||
[2.ee
=
2.ee]
=||
4ccc
[2bb
=
2.bb_
=
2.bb_
=
2.bb_
=
2.bb_
=
2.bb_
=
2.bb_
=
4bb]
4ccc
4ccc
=
2bb
4gg
=
2aa
4ff
!!linebreak:original
=
4ee
4ee
4gg
=
8ccc
8r
2r
==
*-
